X:544
T:BAdd544-  Robin Cushee/Cushee (Kind Robin)
S:McGibbon's 'A Collection of Scots Tunes' [I], 1742
Q:1/4=120
L:1/4
M:C
K:G
G2G3/2 B/|A/B/A/G/ E D3/4E/4|G2G3/2 B/|A/G/A/B/ de|\
G2 (g/4f/4e/4f/4 g/)B/|(c/B/)(~A/G/)ED/E/|GGe(d/B/)|\
d2G2:|de/d/Bg/B/|(c/B/)(~A/G/)E2|d(e3/4d/4){c/}B~A3/4G/4|\
ABe2|de/f/gB|(c/B/)(~A/G/)E#(D/E/)|GGe(d/B/)|d2G2:|]

